X:1
T:Ave Verum
T:Ave Verum
T:Mélanie "Mel" Bonis (1858-1937)
C:Mélanie "Mel" Bonis (1858-1937)
%%score [ 1 2 3 4 ]
L:1/8
Q:1/4=80
M:4/4
K:D
V:1 treble nm="Soprano"
V:2 treble nm="Alto"
V:3 treble-8 nm="Tenor"
V:4 bass nm="Bass"
V:1
"^Adagio"!pp! A4 B4 | G4 A4 | F4 G4 | A4 A4 |!<(! B4 (c2 d2)!<)! |!>(! (d2 c2) (B2 A2)!>)! | %6
w: A- ve|ve- rum|Cor- pus|na- tum|de Ma- *|ri- * a _|
!<(! (B2 A4) G2!<)! |!>(! F8!>)! |!p! F4 G4 | G4 F4 |"^cresc." ^G4 A4 | A4 ^G4 | ^A4 B4 | c4 d4 | %14
w: Vir- * gi-|ne|Ve- re|pas- sum|im- mo-|la- tum|in cru-|* ce|
 e4 ^e2 e2 | f8 | c4 c4 | B4 B4 | A4 A4 | A2 (G4 F2) |!<(! B4 (c2 d2)!<)! | e4 d2 F2 | %22
w: pro ho- mi-|ne|Cu- jus|la- tus|per- fo-|ra- tum _|un- da _|flu- xit cum|
!>(! (F2 E2) (F2 G2)!>)! | A8 |!p! A4 A4 | (A2 G2) (F2 B2) |"^poco cresc." B4 B4 | %27
w: san- * gui- *|ne|E- sto|no- * bis _|præ- gus-|
 (B2 A2) (G2 e2) | e2 d4 (c2- | c2 d2) c2 B2 |!>(! A4 G4 | F4!>)!!pp! z2!<(! =A2 | %32
w: ta- * tum _|mor- * tis|_ _ in ex-|a- mi-|ne O|
 _B4!<)! (B2 A2) |!>(! ^G4 G2!>)!!<(! A2 | _B4 (B2 =c2)!<)! | d4 A2 A2 | %36
w: Je- su _|dul- cis! O|Je- su _|pi- e! O|
"^poco cresc." (=B2 ^c2) (d2 e2) | (f2 e2) d2 c2 | (d2 c2) B2"^dim." F2 | (E2 F2) (E2 D2) | %40
w: Je- * su _|fi- * li Ma-|ri- * ae tu|no- * bis _|
!pp! D2 D2"^rall." D2 D2 | D4 E4 | F8 |] %43
w: mi- se- re- re|O Je-|su.|
V:2
!pp! F4 F4 | B,4 E4 | D4 (E2 D2) | D4 C4 |!<(! D4 (G2 F2)!<)! |!>(! (F2 E2) (D2 C2)!>)! | %6
w: A- ve|ve- rum|Cor- pus _|na- tum|de Ma- *|ri- * a _|
!<(! (C2 D2) (E4-!<)! |!>(! E2 D2) C4!>)! |!p! D4 E4 | (^D2 E4) D2 |"^cresc." ^E4 F4 | =D6 C2 | %12
w: Vir- * gi-|* * ne|Ve- re|pas- * sum|im- mo-|la- tum|
 z2 (G4 F2) | F2 E2 (F2 G2) | G2 B4 B2 | B4 ^A4 | =A4 A4 | (A2 ^G2) =G4 | (G2 F2) (E2 ^D2) | %19
w: in _|cru- * ce _|pro ho- mi-|ne _|Cu- jus|la- * tus|per- * fo- *|
 E6 =D2 |!<(! D2 (E4 F2)!<)! | G2 F4 D2 |!>(! D4 D4!>)! | (D4 C4) | z2!p! (G2 F2) E2 | ^D4 D4 | %26
w: ra- tum|un- da _|flu- xit cum|san- gui-|ne _|E- * sto|no- bis|
"^poco cresc." (^D2 A2) (G2 F2) | E4 (E2 =D2) | (C2 E2 G2 F2) | (E2 D2) D2 D2 |!>(! (^D2 E4) =D2 | %31
w: præ- * gus- *|ta- tum _|mor- * * *|tis _ in ex-|a- * mi-|
 C4!>)!!pp! z2!<(! D2 | D4!<)! D4 |!>(! D4 D2!>)!!<(! D2 | (D2 C2) (D2 E2)!<)! | F2 E4 F2 | %36
w: ne O|Je- su|dul- cis! O|Je- * su _|pi- e! O|
"^poco cresc." F2 E2 F4 | F4 F2 F2 | (F2 E2) D2"^dim." D2 | (D2 C2) =C4 | %40
w: Je- * su|fi- li Ma-|ri- * ae tu|no- * bis|
!pp! B,2 B,2"^rall." B,2 B,2 | B,4 C4 | D8 |] %43
w: mi- se- re- re|O Je-|su.|
V:3
!pp! d4 d4 | d4 A4 | A4 E4 | F4 E4 |!<(! (G2 F2) (E2 D2)!<)! |!>(! B4 G4!>)! |!<(! G6 A2!<)! | %7
w: A- ve|ve- rum|Cor- pus|na- tum|de _ Ma- *|ri- a|Vir- gi-|
!>(! ^A8!>)! |!p! (B2 d4) c2 | =c6 B2 |"^cresc." B2 (^c4 d2) | B4 B4 | z2 (e4 d2) | %13
w: ne|Ve- * re|pas- sum|im- mo- *|la- tum|in _|
 ^A2 ^G2 (A2 B2) | c2 (d2 c2) B2 | c8 | z2 (f2 e2) ^d2- | d2 (e2 =d2) c2 | (c2 d2) (=c2 B2) | %19
w: cru- * ce _|pro ho- * mi-|ne|Cu- * jus|_ la- * tus|per- * fo- *|
 B4 A4 |!<(! (G2 B2) B4!<)! | (B2 ^A2) B2 =A2 |!>(! =G4 D4!>)! | E8 | z2!p! (e2 d2) =c2 | B4 B4 | %26
w: ra- tum|un- * da|flu- * xit cum|san- gui-|ne|E- * sto|no- bis|
"^poco cresc." B4 B4 | G4 G4 | (g2 e2 B2 A2) | (G2 F2) F2 F2 |!>(! (F2 G2) B4 | %31
w: præ- gus-|ta- tum|mor- * * *|tis _ in ex-|a- * mi-|
 ^A4!>)!!pp! z2!<(! =A2 | ^G4!<)! (G2 A2) |!>(! _B4 B2!>)!!<(! A2 | =G4 _B4!<)! | =c4 d2 d2 | %36
w: ne O|Je- su _|dul- cis! O|Je- su|pi- e! O|
"^poco cresc." d4 B4 | c4 B2 B2 | B4 B2"^dim." B2 | (B2 _B2) A4 |!pp! _A2 A2"^rall." A2 A2 | G8 | %42
w: Je- su|fi- li Ma-|ri- ae tu|no- * bis|mi- se- re- re|O|
 A2 A6 |] %43
w: Je- su.|
V:4
!pp! (D2 C2) (B,2 F,2) | (F,2 E,2) (D,2 C,2) | (C,2 D,2) (C,2 B,,2) | A,,4 A,,4 | %4
w: A- * ve _|ve- * rum _|Cor- * pus _|na- tum|
!<(! G,,4 (A,,2 B,,2)!<)! |!>(! G,4 E,4!>)! |!<(! (E,2 D,2) (C,4-!<)! |!>(! C,2 D,E,) F,4!>)! | %8
w: de Ma- *|ri- a|Vir- * gi-|* * * ne|
 z2!p! B,4 ^A,2 | =A,4 A,4 |"^cresc." ^G,4 F,4 | (E,2 F,4) E,2 | F,4 F,4- | F,4 F,4 | F,4 G,2 G,2 | %15
w: Ve- re|pas- sum|im- mo-|la- * tum|in cru-|* ce|pro ho- mi-|
 F,8 | F,4 F,4 | (F,2 E,2) E,4 | (E,2 D,2) (E,2 F,2) | (E,2 D,2) (C,2 D,2) | %20
w: ne|Cu- jus|la- * tus|per- * fo- *|ra- * tum _|
!<(! (G,,2 G,2) (G,2 F,2)!<)! | (E,2 F,2) B,,2 B,,2 |!>(! _B,,4 B,,4!>)! | A,,8 | z8 | %25
w: un- * da _|flu- * xit cum|san- gui-|ne||
 z4!p! B,2 A,2 |"^poco cresc." (G,2 F,2) E,2 =D,2 | C,4 B,,4 | A,,4- A,, z A,,2 | %29
w: E- sto|no- * bis præ-|gus- ta-|tum _ mor-|
 (^A,,2 B,,2) B,,2 B,,2 |!>(! (^B,,2 C,2) (D,2 E,2) | F,4!>)!!pp! z2!<(! F,2 | =F,4!<)! F,4 | %33
w: tis _ in ex-|a- * mi- *|ne O|Je- su|
!>(! =F,4 F,2!>)!!<(! F,2 | E,4 G,4!<)! | A,4 =C2 (B,A,) |"^poco cresc." ^G,4 G,4 | ^A,4 B,2 =A,2 | %38
w: dul- cis! O|Je- su|pi- e! O _|Je- su|fi- li Ma-|
 ^G,4 G,2"^dim." A,2 | (^G,2 =G,2) F,4 |!pp! =F,2 F,2"^rall." F,2 F,2 | E,8 | D,2 D,6 |] %43
w: ri ae tu|no- * bis|mi- se- re- re|O|Je- su.|

